X:1
T:Town of Bethlehem, CMD
T:Henry Walford Davies, 1905
T:Town of Bethlehem, CMD
T:Public Domain
T:Public Domain
C:Henry Walford Davies, 1905
Z:Public Domain
%%score ( 1 2 ) ( 3 4 )
L:1/8
M:4/4
K:F
V:1 treble 
V:2 treble 
V:3 bass 
V:4 bass 
V:1
 [CA]2 | [B,G]3 [CA] [A,F]2 [CA]2 | [B,G]3 [CA] [A,F]2 [CA]2 | d2 c2 A2 GF | [CA]6 [CA]2 | %5
 [B,G]3 [CA] [A,F]2 [CA]2 | [CA][B,G][B,G][CA] [A,F]2 [A,C][=B,D] | [CE]2 [Ec]2 =B3 A | [CA]6 E^F | %9
 [=B,^G]2 CB, [A,A]2 [CE]2 | =B2 E2 [Cc]2 [Ec-][Fcd] | [Gce]2 [EGc]2 [EG]3 [DF] | [CE]6 CD | %13
 B3 c [FA]2 CD | cBBc [FA]2 F2 | DE c2 A2 A,=B, | z2 E4 D[_B,EG] | [A,F]2 [A,F]3 [CA][Fc][Af] | %18
 [ca]4 [B-dg-]2 [Bcg]2 | [Af]6 |] %20
V:2
 x2 | x8 | x8 | F4 C4 | x8 | x8 | x8 | x4 D4 | x6 C2 | x2 E2 x4 | D4 x4 | x8 | x6 c2 | E4 c2 x2 | %14
 E4 x F2 x | d2 F4 F2 | [CA]6 x2 | x8 | x8 | x6 |] %20
V:3
 C,D, | E,2 C,2 F,2 C,D, | E,2 C,2 F,2 F,2 | B,2 A,2 F,2 G,A, | [A,,E,]6 C,D, | E,2 C,2 F,2 C,D, | %6
 E,2 C,2 F,2 F,2 | E,2 C,A,, E,2 ^G,2 | A,2 A,,=B,, C,2 E,2 | D,2 E,D, C,2 E,2 | %10
 [=B,,^G,]2 E,2 [A,,A,]2 A,2 | G,4 A,2 =B,2 | [C,G,]2 C,D, E,2 [C,A,]2 | G,2 z A, F,2 [C,A,]2 | %14
 G,2 z A, F,2 A,2 | B,2 A,2 F,2 D,2 | A,,4 C,4 | F,,2 C,3 F,A,C | F2 CD F2 E2 | [F,C]6 |] %20
V:4
 x2 | x8 | x8 | x8 | x8 | x8 | x8 | x4 E,4 | x8 | x8 | x8 | x4 G,4 | x8 | G,3 (C,2 F,2) x | %14
 G,3 (C,2 F,2) x | x8 | x8 | x8 | x4 C4 | x6 |] %20

